X: 186
T: Song of the Buffalo Hunt (b)
C: Teton Sioux band 1911-1914
N: Derived from sioux181.krn
O: South Dakota, U.S.A.
N: Teton Sioux Music by Frances Densmore, 1918
Z: transcribed to **kern format by Craig Sapp
L: 1/8
M: 3/4
Q: 1/4=58
K: E clef=bass
%%linebreak <none>
F4F2 [I:setbarnb 1]||  
[M:2/4](3E C C C C | 
C2F/ F3/ | 
(3E C C C C | 
C4 | 
C2B,2 | 
B, B, C B, | 
G, C C B, | 
G, C C B, | 
B,4 |]  



